!!!OTL: 250. 's Mailuesterl.
!!!COM: Volksweise
!!!ARE: Europa, Mitteleuropa, Deutschland; Oesterreich
!!!SCT: B0250
!!!TXL: @@BAR
!!!YEM: Copyright 1995, estate of Helmut Schaffrath.
**kern	**text
*ICvox	*
*Ivox	*
*celfG2	*
*M3/4	*
*k[b-]	*
*F:	*
!LO:TX:a:t=Langſam.	!
{4c	Wenns
=1	=1
4c	Mai-
4.a	-lüf-
8b-	-terl
=2	=2
4cc}	weht,
{4.g	ʒ'geht
8a	im
=3	=3
4b-	Wald
4dd	drauß
4cc	der
=4	=4
4a	Schnee;
4r}	.
{4a	da
=5	=5
8aL	heb'n
8gJ	.
4g	die
8aL	blauen
8bnJ	.
=6	=6
4dd	Veil-
4cc}	-chen
{8bnL	die
8aJ	.
=7	=7
8.aL	Köpferl
16gJ	.
4d	in
8fL	die
8eJ	.
=8	=8
4c	Höh.
4r}	.
{4c	Die
=9	=9
(8.cL	Vö-
16gJ)	.
4g	-gerln
4a	die
=10	=10
4g	g'ſchlafen
4f}	.
{4c	habn
=11	=11
4b-	durch
4b-	d'Winters-
4cc	.
=12	=12
4a	-ʒeit,
4r	.
8r}	.
{8f	die
=13	=13
4f	werd'n
4g	wie-
4a	-der
=14	=14
4cc	mun-
4b-	-ter,
8r}	.
{8g	die
=15	=15
4g	werd'n
4a	wie-
4bn	-der
=16	=16
4dd	mun-
4cc	-ter,
8r}	.
{8cc	die
=17	=17
4cc	werd'n
4dd	wie-
4ee	-der
=18	=18
4gg	mun-
4.ff}	-ter
{8cc	und
=19	=19
4ee	ſin-
4dd	-gen
4b-	voll
=20	=20
4a	Freud,
4r}	.
{4a	die
=21	=21
4g	werd'n
4.ee	wie-
8dd	-der
=22	=22
4cc	mun-
4c}	-ter
{4c	und
=23	=23
4b-	ſin-
4a	-gen
4g	voll
=24	=24
2f}	Freud.
==	==
!!!AGN: Stimmungs - Lied, Fruehling
!!!GTL: Trauerlieder (Elegien) und Stimmungslieder
!!!ONB: ESAC (Essen Associative Code) Database: BOEHME
!!!AMT: simple triple
!!!AIN: vox
!!!EED: Helmut Schaffrath
!!!EEV: 1.0
!!Volksweiſe (nach Kreipl. 1853).
!!@@COMMENT:"Gedicht von Anton v. Klesheim (vor 1849), urſprünglich im öſterr. Dialekt, der hier an
!!mehreren Stellen entfernt iſt, um das Lied ſo ʒu geben, wie es in Norddeutſchland viel geſungen wird.
!!Mel. v. J. Kreipl 1853 erſchienen."
!!@@END:
!!!Text: A. von Klesheim
!!!URL-scan: https://archive.org/details/BoehmeVtLieder1895/page/n219/mode/2up
!!!ENC: Anna Maria Matuszewska
!!!EEV: 2024/03/07
*-	*-
